X: 35085
T: Rolling In The Ryegrass
R: reel
M: 4/4
K: Dmajor
|:"D" a2 af dfaf|"G" g2 bg d'gbg|"D" abaf dfaf|"G" gbaf "A" efdf:|
|:"D" ABde f2fd|"G" g2ge fedB|"D" ABde fefg|"D" afdf "A" efdB:|

